static/img/logotype_sv.svg

<?xml version="1.0" encoding="UTF-8" standalone="no"?>
<!-- Created with Inkscape (http://www.inkscape.org/) -->

<svg
   xmlns:dc="http://purl.org/dc/elements/1.1/"
   xmlns:cc="http://creativecommons.org/ns#"
   xmlns:rdf="http://www.w3.org/1999/02/22-rdf-syntax-ns#"
   xmlns:svg="http://www.w3.org/2000/svg"
   xmlns="http://www.w3.org/2000/svg"
   xmlns:xlink="http://www.w3.org/1999/xlink"
   xmlns:sodipodi="http://sodipodi.sourceforge.net/DTD/sodipodi-0.dtd"
   xmlns:inkscape="http://www.inkscape.org/namespaces/inkscape"
   width="874.46753"
   height="1045.2423"
   id="svg2"
   sodipodi:version="0.32"
   inkscape:version="0.48.4 r9939"
   version="1.0"
   sodipodi:docname="logotype_sv.svg"
   inkscape:output_extension="org.inkscape.output.svg.inkscape"
   inkscape:export-filename="/home/smika/pionjar/lappar/planscher/plansch0/plansch0b-hires.png"
   inkscape:export-xdpi="300.01077"
   inkscape:export-ydpi="300.01077">
  <sodipodi:namedview
     id="base"
     pagecolor="#ffffff"
     bordercolor="#666666"
     borderopacity="1.0"
     gridtolerance="10000"
     guidetolerance="39.8"
     objecttolerance="10"
     inkscape:pageopacity="0.0"
     inkscape:pageshadow="2"
     inkscape:zoom="0.66386034"
     inkscape:cx="330.80939"
     inkscape:cy="530.78438"
     inkscape:document-units="px"
     inkscape:current-layer="layer1"
     width="744.09449px"
     height="1052.3622px"
     showguides="true"
     inkscape:guide-bbox="false"
     units="mm"
     inkscape:window-width="1280"
     inkscape:window-height="972"
     inkscape:window-x="1280"
     inkscape:window-y="24"
     inkscape:grid-points="false"
     inkscape:guide-points="false"
     showgrid="false"
     inkscape:window-maximized="0"
     fit-margin-top="40"
     fit-margin-left="40"
     fit-margin-right="40"
     fit-margin-bottom="40" />
  <defs
     id="defs4">
    <inkscape:perspective
       sodipodi:type="inkscape:persp3d"
       id="perspective317"
       inkscape:vp_x="-50 : 600 : 1"
       inkscape:vp_y="0 : 1000 : 0"
       inkscape:vp_z="700 : 600 : 1"
       inkscape:persp3d-origin="300 : 400 : 1" />
    <defs
       id="defs552">
      <linearGradient
         id="linearGradient585">
        <stop
           offset="0"
           style="stop-color:#000;stop-opacity:1;"
           id="stop586" />
        <stop
           offset="1"
           style="stop-color:#fff;stop-opacity:1;"
           id="stop587" />
      </linearGradient>
      <radialGradient
         id="radialGradient588"
         xlink:href="#linearGradient585" />
      <linearGradient
         id="linearGradient636"
         xlink:href="#linearGradient585" />
      <linearGradient
         id="linearGradient637"
         xlink:href="#linearGradient585" />
      <defs
         id="defs683" />
      <sodipodi:namedview
         id="namedview691"
         gridtolerance="15px"
         guidetolerance="20px"
         snaptogrid="false"
         snaptoguides="true"
         showgrid="true"
         showborder="false">
        <sodipodi:guide
           id="guide563"
           orientation="vertical"
           position="-353.891418" />
        <sodipodi:guide
           id="guide564"
           orientation="vertical"
           position="-218.868240" />
        <sodipodi:guide
           id="guide565"
           orientation="vertical"
           position="-130.667603" />
        <sodipodi:guide
           id="guide566"
           orientation="vertical"
           position="-71.867180" />
        <sodipodi:guide
           id="guide567"
           orientation="vertical"
           position="-13.066760" />
        <sodipodi:guide
           id="guide568"
           orientation="vertical"
           position="75.133873" />
        <sodipodi:guide
           id="guide569"
           orientation="vertical"
           position="140.467667" />
        <sodipodi:guide
           id="guide570"
           orientation="vertical"
           position="211.813034" />
        <sodipodi:guide
           id="guide571"
           orientation="horizontal"
           position="921.206604" />
        <sodipodi:guide
           id="guide572"
           orientation="horizontal"
           position="852.614502" />
        <sodipodi:guide
           id="guide573"
           orientation="horizontal"
           position="638.093445" />
        <sodipodi:guide
           id="guide574"
           orientation="vertical"
           position="-285.290924" />
        <sodipodi:guide
           id="guide575"
           orientation="horizontal"
           position="697.982788" />
        <sodipodi:guide
           id="guide576"
           orientation="horizontal"
           position="580.381958" />
        <sodipodi:guide
           id="guide577"
           orientation="horizontal"
           position="492.181305" />
        <sodipodi:guide
           id="guide578"
           orientation="horizontal"
           position="426.847504" />
        <sodipodi:guide
           id="guide579"
           orientation="horizontal"
           position="354.980316" />
        <sodipodi:guide
           id="guide580"
           orientation="horizontal"
           position="786.183411" />
        <sodipodi:guide
           id="guide583"
           orientation="horizontal"
           position="1008.15594" />
        <sodipodi:guide
           id="guide584"
           orientation="vertical"
           position="-442.788116" />
        <sodipodi:guide
           id="guide585"
           orientation="horizontal"
           position="272.677429" />
        <sodipodi:guide
           id="guide586"
           orientation="vertical"
           position="295.192078" />
      </sodipodi:namedview>
    </defs>
  </defs>
  <metadata
     id="metadata7">
    <rdf:RDF>
      <cc:Work
         rdf:about="">
        <dc:format>image/svg+xml</dc:format>
        <dc:type
           rdf:resource="http://purl.org/dc/dcmitype/StillImage" />
        <dc:title />
        <dc:date />
        <dc:creator>
          <cc:Agent>
            <dc:title />
          </cc:Agent>
        </dc:creator>
        <dc:rights>
          <cc:Agent>
            <dc:title />
          </cc:Agent>
        </dc:rights>
        <dc:publisher>
          <cc:Agent>
            <dc:title />
          </cc:Agent>
        </dc:publisher>
        <dc:identifier />
        <dc:source />
        <dc:relation />
        <dc:language />
        <dc:subject>
          <rdf:Bag />
        </dc:subject>
        <dc:coverage />
        <dc:description />
        <dc:contributor>
          <cc:Agent>
            <dc:title />
          </cc:Agent>
        </dc:contributor>
        <cc:license
           rdf:resource="" />
      </cc:Work>
      <cc:Work
         rdf:about="">
        <dc:format>image/svg+xml</dc:format>
        <dc:type
           rdf:resource="http://purl.org/dc/dcmitype/StillImage" />
      </cc:Work>
    </rdf:RDF>
  </metadata>
  <g
     inkscape:label="text_barnledar2008"
     style="display:inline"
     id="layer1"
     inkscape:groupmode="layer"
     transform="translate(64.579689,-0.72770055)">
    <g
       id="g2995"
       transform="matrix(2.9638241,0,0,2.9638241,792.84675,-28.153489)">
      <g
         transform="matrix(2.2403567,0,0,2.2403567,71.479022,-83.8194)"
         id="g5777"
         style="display:inline">
        <path
           id="path869"
           sodipodi:nodetypes="ccccc"
           d="m -95.169497,145.53144 c -34.794653,-20.12995 -29.577243,-29.57753 -33.967793,-76.815976 7.87045,-3.217301 21.78882,-4.957146 33.933633,-4.957177 12.143278,0 26.06167,1.739845 33.932427,4.957115 -4.390697,47.238478 0.826315,56.686048 -33.898267,76.816038 z"
           style="font-size:12px;fill:#f8f8ee;fill-opacity:0.6;fill-rule:evenodd;stroke:#92916e;stroke-width:1.3003186;stroke-miterlimit:4;stroke-opacity:1;stroke-dasharray:none"
           inkscape:connector-curvature="0" />
        <g
           id="g870"
           transform="matrix(0.491027,0,0,0.491027,-366.9415,-30.03795)"
           style="font-size:12px">
          <path
             id="path871"
             sodipodi:nodetypes="ccc"
             d="m 521.5932,319.3524 31.9715,-5.8585 31.4559,5.8585"
             style="font-size:12px;fill:none;stroke:#6a3121;stroke-width:9.5480442;stroke-linejoin:bevel"
             inkscape:connector-curvature="0" />
          <path
             id="path872"
             sodipodi:nodetypes="cscc"
             d="m 554.4909,205.6417 c -55.9095,49.7188 -31.7688,110.0807 9.0443,96.2982 18.8778,-6.1407 36.7459,-39.039 1.6163,-72.6054 13.0758,55.656 -39.4122,62.6567 -10.6606,-23.6928 z"
             style="font-size:12px;fill:#e32500;fill-rule:evenodd;stroke-width:0;stroke-linecap:round"
             inkscape:connector-curvature="0" />
        </g>
      </g>
      <g
         transform="matrix(0.4680587,0,0,0.4680587,-325.14299,225.76681)"
         id="g5399"
         style="display:inline">
        <text
           x="173.82462"
           y="137.70314"
           id="text947"
           style="font-size:79.43235779px;font-style:normal;font-variant:normal;font-weight:normal;font-stretch:normal;text-align:start;line-height:125%;writing-mode:lr-tb;text-anchor:start;fill:#92916e;fill-opacity:1;stroke:none;font-family:URW Gothic L"
           sodipodi:linespacing="125%">
          <tspan
             x="173.82462"
             y="137.70314"
             id="tspan962"
             sodipodi:role="line"
             style="font-size:79.43235779px;font-style:normal;font-variant:normal;font-weight:normal;font-stretch:normal;text-align:start;line-height:125%;writing-mode:lr-tb;text-anchor:start;fill:#92916e;fill-opacity:1;stroke:none;font-family:URW Gothic L">Pionjärerna</tspan>
        </text>
        <text
           xml:space="default"
           x="179.3268"
           y="181.39832"
           transform="scale(0.9898446,1.0102596)"
           sodipodi:linespacing="125%"
           id="text1301"
           style="font-size:29.97736168px;font-style:normal;font-variant:normal;font-weight:normal;font-stretch:normal;text-align:start;line-height:125%;writing-mode:lr-tb;text-anchor:start;fill:#92916e;fill-opacity:1;stroke:none;font-family:URW Gothic L">
          <tspan
             x="179.3268"
             y="181.39832"
             id="tspan6216"
             sodipodi:role="line">alltid redo för goda gärningar</tspan>
        </text>
      </g>
    </g>
  </g>
</svg>

<?xml version="1.0" encoding="UTF-8" standalone="no"?>
<!-- Created with Inkscape (http://www.inkscape.org/) -->

<svg
   xmlns:dc="http://purl.org/dc/elements/1.1/"
   xmlns:cc="http://creativecommons.org/ns#"
   xmlns:rdf="http://www.w3.org/1999/02/22-rdf-syntax-ns#"
   xmlns:svg="http://www.w3.org/2000/svg"
   xmlns="http://www.w3.org/2000/svg"
   xmlns:xlink="http://www.w3.org/1999/xlink"
   xmlns:sodipodi="http://sodipodi.sourceforge.net/DTD/sodipodi-0.dtd"
   xmlns:inkscape="http://www.inkscape.org/namespaces/inkscape"
   width="744.09448"
   height="1052.3622"
   id="svg2"
   sodipodi:version="0.32"
   inkscape:version="0.48.4 r9939"
   version="1.0"
   sodipodi:docname="logotype_sv.svg"
   inkscape:output_extension="org.inkscape.output.svg.inkscape"
   inkscape:export-filename="/home/smika/pionjar/lappar/planscher/plansch0/plansch0b-hires.png"
   inkscape:export-xdpi="300.01077"
   inkscape:export-ydpi="300.01077">
  <sodipodi:namedview
     id="base"
     pagecolor="#ffffff"
     bordercolor="#666666"
     borderopacity="1.0"
     gridtolerance="10000"
     guidetolerance="39.8"
     objecttolerance="10"
     inkscape:pageopacity="0.0"
     inkscape:pageshadow="2"
     inkscape:zoom="0.66386034"
     inkscape:cx="266.2297"
     inkscape:cy="416.66925"
     inkscape:document-units="px"
     inkscape:current-layer="layer1"
     width="744.09449px"
     height="1052.3622px"
     showguides="true"
     inkscape:guide-bbox="false"
     units="mm"
     inkscape:window-width="1280"
     inkscape:window-height="972"
     inkscape:window-x="1280"
     inkscape:window-y="24"
     inkscape:grid-points="false"
     inkscape:guide-points="false"
     showgrid="false"
     inkscape:window-maximized="0" />
  <defs
     id="defs4">
    <inkscape:perspective
       sodipodi:type="inkscape:persp3d"
       id="perspective317"
       inkscape:vp_x="-50 : 600 : 1"
       inkscape:vp_y="0 : 1000 : 0"
       inkscape:vp_z="700 : 600 : 1"
       inkscape:persp3d-origin="300 : 400 : 1" />
    <defs
       id="defs552">
      <linearGradient
         id="linearGradient585">
        <stop
           offset="0"
           style="stop-color:#000;stop-opacity:1;"
           id="stop586" />
        <stop
           offset="1"
           style="stop-color:#fff;stop-opacity:1;"
           id="stop587" />
      </linearGradient>
      <radialGradient
         id="radialGradient588"
         xlink:href="#linearGradient585" />
      <linearGradient
         id="linearGradient636"
         xlink:href="#linearGradient585" />
      <linearGradient
         id="linearGradient637"
         xlink:href="#linearGradient585" />
      <defs
         id="defs683" />
      <sodipodi:namedview
         id="namedview691"
         gridtolerance="15px"
         guidetolerance="20px"
         snaptogrid="false"
         snaptoguides="true"
         showgrid="true"
         showborder="false">
        <sodipodi:guide
           id="guide563"
           orientation="vertical"
           position="-353.891418" />
        <sodipodi:guide
           id="guide564"
           orientation="vertical"
           position="-218.868240" />
        <sodipodi:guide
           id="guide565"
           orientation="vertical"
           position="-130.667603" />
        <sodipodi:guide
           id="guide566"
           orientation="vertical"
           position="-71.867180" />
        <sodipodi:guide
           id="guide567"
           orientation="vertical"
           position="-13.066760" />
        <sodipodi:guide
           id="guide568"
           orientation="vertical"
           position="75.133873" />
        <sodipodi:guide
           id="guide569"
           orientation="vertical"
           position="140.467667" />
        <sodipodi:guide
           id="guide570"
           orientation="vertical"
           position="211.813034" />
        <sodipodi:guide
           id="guide571"
           orientation="horizontal"
           position="921.206604" />
        <sodipodi:guide
           id="guide572"
           orientation="horizontal"
           position="852.614502" />
        <sodipodi:guide
           id="guide573"
           orientation="horizontal"
           position="638.093445" />
        <sodipodi:guide
           id="guide574"
           orientation="vertical"
           position="-285.290924" />
        <sodipodi:guide
           id="guide575"
           orientation="horizontal"
           position="697.982788" />
        <sodipodi:guide
           id="guide576"
           orientation="horizontal"
           position="580.381958" />
        <sodipodi:guide
           id="guide577"
           orientation="horizontal"
           position="492.181305" />
        <sodipodi:guide
           id="guide578"
           orientation="horizontal"
           position="426.847504" />
        <sodipodi:guide
           id="guide579"
           orientation="horizontal"
           position="354.980316" />
        <sodipodi:guide
           id="guide580"
           orientation="horizontal"
           position="786.183411" />
        <sodipodi:guide
           id="guide583"
           orientation="horizontal"
           position="1008.15594" />
        <sodipodi:guide
           id="guide584"
           orientation="vertical"
           position="-442.788116" />
        <sodipodi:guide
           id="guide585"
           orientation="horizontal"
           position="272.677429" />
        <sodipodi:guide
           id="guide586"
           orientation="vertical"
           position="295.192078" />
      </sodipodi:namedview>
    </defs>
  </defs>
  <metadata
     id="metadata7">
    <rdf:RDF>
      <cc:Work
         rdf:about="">
        <dc:format>image/svg+xml</dc:format>
        <dc:type
           rdf:resource="http://purl.org/dc/dcmitype/StillImage" />
        <dc:title />
        <dc:date />
        <dc:creator>
          <cc:Agent>
            <dc:title />
          </cc:Agent>
        </dc:creator>
        <dc:rights>
          <cc:Agent>
            <dc:title />
          </cc:Agent>
        </dc:rights>
        <dc:publisher>
          <cc:Agent>
            <dc:title />
          </cc:Agent>
        </dc:publisher>
        <dc:identifier />
        <dc:source />
        <dc:relation />
        <dc:language />
        <dc:subject>
          <rdf:Bag />
        </dc:subject>
        <dc:coverage />
        <dc:description />
        <dc:contributor>
          <cc:Agent>
            <dc:title />
          </cc:Agent>
        </dc:contributor>
        <cc:license
           rdf:resource="" />
      </cc:Work>
      <cc:Work
         rdf:about="">
        <dc:format>image/svg+xml</dc:format>
        <dc:type
           rdf:resource="http://purl.org/dc/dcmitype/StillImage" />
      </cc:Work>
    </rdf:RDF>
  </metadata>
  <g
     inkscape:label="text_barnledar2008"
     style="display:inline"
     id="layer1"
     inkscape:groupmode="layer">
    <g
       id="g2995"
       transform="matrix(3.4326779,0,0,3.4326779,859.31794,-115.39684)">
      <g
         transform="matrix(2.2403567,0,0,2.2403567,71.479022,-83.8194)"
         id="g5777"
         style="display:inline">
        <path
           id="path869"
           sodipodi:nodetypes="ccccc"
           d="M -95.169497,145.53144 C -129.96415,125.40149 -124.74674,115.95391 -129.13729,68.715464 C -121.26684,65.498163 -107.34847,63.758318 -95.203657,63.758287 C -83.060379,63.758287 -69.141987,65.498132 -61.27123,68.715402 C -65.661927,115.95388 -60.444915,125.40145 -95.169497,145.53144 z "
           style="font-size:12px;fill:#f8f8ee;fill-opacity:0.60000002;fill-rule:evenodd;stroke:#bab9a3;stroke-width:0.13003186000000000;stroke-opacity:1;opacity:1;stroke-miterlimit:4;stroke-dasharray:none" />
        <g
           id="g870"
           transform="matrix(0.491027,0,0,0.491027,-366.9415,-30.03795)"
           style="font-size:12px">
          <path
             id="path871"
             sodipodi:nodetypes="ccc"
             d="M 521.5932,319.3524 L 553.5647,313.4939 L 585.0206,319.3524"
             style="font-size:12px;fill:none;fill-rule:evenodd;stroke:#6a3121;stroke-width:9.5480442;stroke-linejoin:bevel" />
          <path
             id="path872"
             sodipodi:nodetypes="cscc"
             d="M 554.4909,205.6417 C 498.5814,255.3605 522.7221,315.7224 563.5352,301.9399 C 582.413,295.7992 600.2811,262.9009 565.1515,229.3345 C 578.2273,284.9905 525.7393,291.9912 554.4909,205.6417 z "
             style="font-size:12px;fill:#e32500;fill-rule:evenodd;stroke-width:0;stroke-linecap:round" />
        </g>
      </g>
      <g
         transform="matrix(0.4680587,0,0,0.4680587,-325.14299,225.76681)"
         id="g5399"
         style="display:inline">
        <text
           x="173.82462"
           y="137.70314"
           id="text947"
           style="font-size:79.43235778999998331px;font-style:normal;font-variant:normal;font-weight:normal;font-stretch:normal;text-align:start;line-height:125%;writing-mode:lr-tb;text-anchor:start;font-family:URW Gothic L;fill:#9c9b88;fill-opacity:1;stroke:none;stroke-opacity:1;stroke-width:0.62239575999999996;stroke-miterlimit:4;stroke-dasharray:none"
           sodipodi:linespacing="125%">
          <tspan
             x="173.82462"
             y="137.70314"
             id="tspan962"
             sodipodi:role="line"
             style="font-size:79.43235778999998331px;font-style:normal;font-variant:normal;font-weight:normal;font-stretch:normal;text-align:start;line-height:125%;writing-mode:lr-tb;text-anchor:start;fill:#9c9b88;fill-opacity:1;font-family:URW Gothic L;stroke:none;stroke-opacity:1;stroke-width:0.62239575999999996;stroke-miterlimit:4;stroke-dasharray:none">Pionjärerna</tspan>
        </text>
        <text
           xml:space="default"
           x="179.3268"
           y="181.39832"
           transform="scale(0.9898446,1.0102596)"
           sodipodi:linespacing="125%"
           id="text1301"
           style="font-size:29.97736168000000134px;font-style:normal;font-variant:normal;font-weight:normal;font-stretch:normal;text-align:start;line-height:125%;writing-mode:lr-tb;text-anchor:start;font-family:URW Gothic L;fill:#9c9b88;fill-opacity:1;stroke:none;stroke-opacity:1;stroke-width:0.62239575000000003;stroke-miterlimit:4;stroke-dasharray:none">
          <tspan
             x="179.3268"
             y="181.39832"
             id="tspan6216"
             sodipodi:role="line">alltid redo för goda gärningar</tspan>
        </text>
      </g>
    </g>
  </g>
</svg>
